icons/chevrons-in-bottom-left-top-right.svg

<svg xmlns="http://www.w3.org/2000/svg" width="24" height="24" viewBox="0 0 24 24">
  <path d="M10,13 L10.1166211,13.0067277 C10.6139598,13.0644928 11,13.4871642 11,14 L11,14 L11,21 L10.9932723,21.1166211 C10.9355072,21.6139598 10.5128358,22 10,22 L10,22 L9.88337887,21.9932723 C9.38604019,21.9355072 9,21.5128358 9,21 L9,21 L9,15 L3,15 L2.88337887,14.9932723 C2.38604019,14.9355072 2,14.5128358 2,14 C2,13.4477153 2.44771525,13 3,13 L3,13 L10,13 Z M14,2 L14.1166211,2.00672773 C14.6139598,2.06449284 15,2.48716416 15,3 L15,3 L15,9 L21,9 L21.1166211,9.00672773 C21.6139598,9.06449284 22,9.48716416 22,10 C22,10.5522847 21.5522847,11 21,11 L21,11 L14,11 L13.8833789,10.9932723 C13.3860402,10.9355072 13,10.5128358 13,10 L13,10 L13,3 L13.0067277,2.88337887 C13.0644928,2.38604019 13.4871642,2 14,2 L14,2 Z"/>
</svg>

<svg xmlns="http://www.w3.org/2000/svg" viewBox="0 0 24 24">
  <path d="M10 13h.12a1 1 0 0 1 .88 1v7.12a1 1 0 0 1-1 .88h-.12A1 1 0 0 1 9 21v-6H2.88A1 1 0 0 1 3 13h7zm4-11h.12A1 1 0 0 1 15 3v6h6.12a1 1 0 0 1-.12 2h-7.12a1 1 0 0 1-.88-1V2.88A1 1 0 0 1 14 2z"/>
</svg>
